pretzel/src/assets/images/pinterest-logo.svg

<svg width="22" height="23" viewBox="0 0 22 23" fill="none" xmlns="http://www.w3.org/2000/svg">
<path opacity="0.4" fill-rule="evenodd" clip-rule="evenodd" d="M11.2185 0.53125C5.26417 0.53125 0.4375 5.36041 0.4375 11.3207C0.4375 15.891 3.27897 19.7956 7.28887 21.3679C7.19458 20.5148 7.11049 19.2052 7.3271 18.2718C7.52205 17.4301 8.59111 12.9096 8.59111 12.9096C8.59111 12.9096 8.26873 12.263 8.26873 11.3079C8.26873 9.80702 9.13646 8.6874 10.2195 8.6874C11.1382 8.6874 11.5829 9.37856 11.5829 10.2074C11.5829 11.1332 10.9942 12.5168 10.6897 13.7997C10.4361 14.8746 11.2287 15.7494 12.2863 15.7494C14.2027 15.7494 15.6757 13.727 15.6757 10.8081C15.6757 8.2245 13.8217 6.41883 11.1726 6.41883C8.10564 6.41883 6.30519 8.72183 6.30519 11.1013C6.30519 12.0284 6.66069 13.0231 7.10666 13.5637C7.19458 13.6709 7.20732 13.764 7.18184 13.8736C7.10029 14.2141 6.91808 14.9473 6.8824 15.0965C6.83526 15.2942 6.72568 15.3363 6.52053 15.2419C5.17498 14.6145 4.334 12.6431 4.334 11.0618C4.334 7.65832 6.80468 4.53154 11.4568 4.53154C15.1966 4.53154 18.103 7.19925 18.103 10.7634C18.103 14.4819 15.7598 17.4748 12.5093 17.4748C11.416 17.4748 10.389 16.906 10.0373 16.2353C10.0373 16.2353 9.49706 18.2947 9.36582 18.7997C9.12245 19.737 8.46496 20.9114 8.02664 21.6281C9.03453 21.9418 10.1061 22.1101 11.2185 22.1101C17.1728 22.1101 21.9995 17.2797 21.9995 11.3207C21.9995 5.36041 17.1728 0.53125 11.2185 0.53125Z" fill="white"/>
</svg>

<svg width="22" height="23" fill="none" xmlns="http://www.w3.org/2000/svg"><path opacity=".4" fill-rule="evenodd" clip-rule="evenodd" d="M11.219.531C5.264.531.438 5.361.438 11.321c0 4.57 2.841 8.475 6.85 10.047-.093-.853-.178-2.163.04-3.096.194-.842 1.263-5.362 1.263-5.362s-.322-.647-.322-1.602c0-1.501.867-2.62 1.95-2.62.92 0 1.364.69 1.364 1.52 0 .925-.589 2.309-.893 3.592-.254 1.075.539 1.95 1.596 1.95 1.917 0 3.39-2.023 3.39-4.942 0-2.583-1.854-4.39-4.503-4.39-3.067 0-4.868 2.304-4.868 4.683 0 .927.356 1.922.802 2.463.088.107.1.2.075.31-.082.34-.264 1.073-.3 1.223-.047.197-.156.24-.361.145-1.346-.628-2.187-2.599-2.187-4.18 0-3.404 2.47-6.53 7.123-6.53 3.74 0 6.646 2.667 6.646 6.231 0 3.719-2.343 6.712-5.594 6.712-1.093 0-2.12-.569-2.472-1.24 0 0-.54 2.06-.671 2.565-.244.937-.901 2.111-1.34 2.828a10.72 10.72 0 0 0 3.193.482c5.954 0 10.78-4.83 10.78-10.79C22 5.36 17.174.532 11.22.532z" fill="#fff"/></svg>
